src/components/00-materials/images-raw/Theft.svg

<svg width="96" height="96" viewBox="0 0 96 96" fill="none" xmlns="http://www.w3.org/2000/svg">
<path d="M24.77 40H20.57C20.3973 40.0115 20.2306 40.0677 20.0861 40.163C19.9416 40.2582 19.8243 40.3894 19.7457 40.5436C19.6671 40.6978 19.6299 40.8697 19.6376 41.0426C19.6454 41.2155 19.6979 41.3835 19.79 41.53L20.6 43.94H24.74L25.55 41.53C25.6421 41.3835 25.6946 41.2155 25.7024 41.0426C25.7102 40.8697 25.6729 40.6978 25.5943 40.5436C25.5157 40.3894 25.3984 40.2582 25.2539 40.163C25.1094 40.0677 24.9427 40.0115 24.77 40V40ZM28.33 57.69L27.25 52.45C27.1026 51.8958 26.7706 51.4085 26.3087 51.0685C25.8469 50.7285 25.283 50.5562 24.71 50.58H20.51C19.9421 50.5631 19.3851 50.7386 18.9295 51.0781C18.4739 51.4175 18.1463 51.901 18 52.45L16.92 57.69C16.8427 58.0446 16.8091 58.4073 16.82 58.77C16.8538 59.993 17.3621 61.155 18.2375 62.0098C19.1129 62.8646 20.2865 63.3453 21.51 63.35H23.76C24.9852 63.3479 26.1614 62.8684 27.0389 62.0133C27.9164 61.1582 28.4262 59.9948 28.46 58.77C28.4511 58.4067 28.4076 58.045 28.33 57.69V57.69Z" stroke="#00008F" stroke-width="2" stroke-linecap="round" stroke-linejoin="round"/>
<path d="M20.45 50.5698C25.09 50.5698 30.17 50.6398 34.8 50.6598C35.1042 50.6937 35.4121 50.6573 35.7 50.5535C35.988 50.4496 36.2482 50.2811 36.4607 50.0608C36.6733 49.8406 36.8324 49.5745 36.9259 49.2831C37.0194 48.9916 37.0447 48.6826 37 48.3798V41.8298C37.0431 41.6973 37.0666 41.5591 37.07 41.4198C39.3 44.8298 41.48 48.1398 43.61 51.5098C43.369 51.7273 43.0958 51.9061 42.8 52.0398C40.05 53.7398 37.25 55.5398 34.45 57.1398C33.8319 57.4896 33.3227 58.0035 32.9785 58.6248C32.6344 59.246 32.4688 59.9503 32.5 60.6598V80.7998C32.4721 81.3519 32.5589 81.9039 32.7551 82.4207C32.9512 82.9376 33.2523 83.4082 33.6394 83.8029C34.0266 84.1975 34.4913 84.5076 35.0043 84.7136C35.5173 84.9197 36.0675 85.0171 36.62 84.9998C39.09 85.0698 41.16 83.9098 41.16 80.8098V63.7398C41.16 63.2798 41.16 62.9298 41.61 62.5998C44.27 61.0998 53 55.2898 53 55.2898C53.51 54.8998 58.77 50.4198 55.35 44.8898L47.28 31.7598C47.1139 31.4411 46.9268 31.1337 46.72 30.8398C46.9517 30.8041 47.1856 30.784 47.42 30.7798C50.61 30.7798 53.85 30.8398 57.06 30.7798C57.304 30.7594 57.5485 30.8122 57.7623 30.9316C57.9761 31.0509 58.1494 31.2314 58.26 31.4498C59.39 33.2898 60.54 35.1398 61.68 36.9798C61.8882 37.3988 62.1816 37.7696 62.5414 38.0686C62.9012 38.3676 63.3195 38.5882 63.7694 38.7162C64.2194 38.8443 64.6912 38.8769 65.1545 38.8121C65.6178 38.7473 66.0625 38.5864 66.46 38.3398C68.39 37.4098 68.8 35.3398 67.66 33.4998C66.07 30.8598 64.49 28.2298 62.89 25.5898C62.6406 25.1272 62.2669 24.7435 61.811 24.482C61.3551 24.2205 60.8352 24.0916 60.31 24.1098C55.07 24.1098 49.74 24.1098 44.47 24.1798C43.4602 24.2316 42.4798 24.5377 41.62 25.0698C38.62 26.8698 35.84 28.8998 32.92 30.8198C32.1637 31.264 31.542 31.905 31.1212 32.6746C30.7003 33.4441 30.496 34.3134 30.53 35.1898C30.53 37.7698 30.53 40.3398 30.48 42.9298C30.4572 43.2628 30.4572 43.5969 30.48 43.9298C30.1706 43.9573 29.8594 43.9573 29.55 43.9298H20.87M22.92 18.9998C22.9464 21.081 23.7951 23.0673 25.2808 24.5249C26.7666 25.9826 28.7687 26.7932 30.85 26.7798C32.4078 26.7678 33.9269 26.2938 35.215 25.4178C36.5032 24.5418 37.5024 23.3033 38.0861 21.859C38.6698 20.4147 38.8118 18.8297 38.494 17.3046C38.1762 15.7796 37.413 14.3832 36.301 13.2922C35.1891 12.2013 33.7783 11.4649 32.2475 11.1763C30.7167 10.8877 29.1346 11.0599 27.7018 11.6711C26.2689 12.2822 25.0496 13.3049 24.1984 14.6096C23.3472 15.9142 22.9022 17.4421 22.92 18.9998Z" stroke="#00008F" stroke-width="2" stroke-linecap="round" stroke-linejoin="round"/>
<path d="M20.6 43.9096C20.152 43.8706 19.7009 43.9256 19.2754 44.071C18.8499 44.2164 18.4595 44.4491 18.1291 44.754C17.7987 45.059 17.5356 45.4296 17.3567 45.8422C17.1777 46.2547 17.0869 46.7 17.09 47.1496C17.0351 47.6067 17.0838 48.0703 17.2323 48.5061C17.3809 48.9419 17.6255 49.3386 17.9482 49.667C18.2708 49.9954 18.6632 50.2471 19.0963 50.4033C19.5293 50.5596 19.992 50.6164 20.45 50.5696" stroke="#00008F" stroke-width="1.92" stroke-linecap="round" stroke-linejoin="round"/>
<path d="M51.4 56.5798C52.86 60.0198 55.66 66.0598 57.07 69.3898C57.88 71.3898 58.96 71.9198 61.07 71.0298C66.43 68.8198 71.71 66.5698 77.07 64.3498C79.43 63.5298 82.53 61.3498 80.69 57.4598C78.85 53.5698 73.8 56.2898 73.8 56.2898C70.51 57.6298 67.3 58.9898 64.01 60.2898C63.6884 60.4401 63.3536 60.5606 63.01 60.6498C62.87 60.3298 62.74 60.0298 62.62 59.7198C61.28 56.4198 56.36 46.7198 55.9 45.7998" stroke="#00008F" stroke-width="2" stroke-linecap="round" stroke-linejoin="round"/>
</svg>

<svg width="96" height="96" viewBox="0 0 96 96" fill="none" xmlns="http://www.w3.org/2000/svg"><path d="M24.77 40h-4.2a1 1 0 00-.78 1.53l.81 2.41h4.14l.81-2.41a1 1 0 00-.78-1.53v0zm3.56 17.69l-1.08-5.24a2.52 2.52 0 00-2.54-1.87h-4.2A2.52 2.52 0 0018 52.45l-1.08 5.24c-.077.355-.11.717-.1 1.08a4.71 4.71 0 004.69 4.58h2.25a4.71 4.71 0 004.7-4.58 5.713 5.713 0 00-.13-1.08v0z" stroke="#00008F" stroke-width="2" stroke-linecap="round" stroke-linejoin="round"/><path d="M20.45 50.57c4.64 0 9.72.07 14.35.09a2 2 0 002.2-2.28v-6.55a1.44 1.44 0 00.07-.41c2.23 3.41 4.41 6.72 6.54 10.09a3.138 3.138 0 01-.81.53c-2.75 1.7-5.55 3.5-8.35 5.1a3.85 3.85 0 00-1.95 3.52V80.8a3.999 3.999 0 004.12 4.2c2.47.07 4.54-1.09 4.54-4.19V63.74c0-.46 0-.81.45-1.14C44.27 61.1 53 55.29 53 55.29c.51-.39 5.77-4.87 2.35-10.4l-8.07-13.13a8.122 8.122 0 00-.56-.92 5.21 5.21 0 01.7-.06c3.19 0 6.43.06 9.64 0a1.23 1.23 0 011.2.67c1.13 1.84 2.28 3.69 3.42 5.53a3.36 3.36 0 004.78 1.36c1.93-.93 2.34-3 1.2-4.84-1.59-2.64-3.17-5.27-4.77-7.91a2.82 2.82 0 00-2.58-1.48c-5.24 0-10.57 0-15.84.07a6 6 0 00-2.85.89c-3 1.8-5.78 3.83-8.7 5.75a4.849 4.849 0 00-2.39 4.37c0 2.58 0 5.15-.05 7.74a7.318 7.318 0 000 1c-.31.027-.62.027-.93 0h-8.68M22.92 19a7.88 7.88 0 007.93 7.78A7.87 7.87 0 1022.92 19z" stroke="#00008F" stroke-width="2" stroke-linecap="round" stroke-linejoin="round"/><path d="M20.6 43.91a3.23 3.23 0 00-3.51 3.24 3.07 3.07 0 003.36 3.42" stroke="#00008F" stroke-width="1.92" stroke-linecap="round" stroke-linejoin="round"/><path d="M51.4 56.58c1.46 3.44 4.26 9.48 5.67 12.81.81 2 1.89 2.53 4 1.64 5.36-2.21 10.64-4.46 16-6.68 2.36-.82 5.46-3 3.62-6.89-1.84-3.89-6.89-1.17-6.89-1.17-3.29 1.34-6.5 2.7-9.79 4a5.81 5.81 0 01-1 .36c-.14-.32-.27-.62-.39-.93-1.34-3.3-6.26-13-6.72-13.92" stroke="#00008F" stroke-width="2" stroke-linecap="round" stroke-linejoin="round"/></svg>
